icons/desktop/16/svg/lightbulb-16.svg

<svg width="16" height="16" viewBox="0 0 16 16" fill="none" xmlns="http://www.w3.org/2000/svg">
<path fill-rule="evenodd" clip-rule="evenodd" d="M7.99707 0.00120766C8.45982 -0.00788812 8.93468 0.034172 9.41504 0.134997L9.62598 0.183825C11.7915 0.724157 13.5193 2.4967 13.9863 4.68968C14.5112 7.15532 13.5113 9.44528 11.75 10.7825V13.1789C11.75 14.46 10.864 15.5673 9.63477 15.8577L9.38379 15.9055C8.84819 15.98 8.37768 16.0012 8 16.0012C7.48438 16.0012 7.00561 15.9613 6.57129 15.8987C5.21269 15.703 4.24941 14.5173 4.24805 13.1809V10.5764C2.95153 9.47666 2.12598 7.83587 2.12598 6.00023C2.12601 2.72931 4.74323 0.0709247 7.99707 0.00120766ZM5.74805 13.1799L5.75293 13.2961C5.80522 13.8709 6.23641 14.3353 6.78516 14.4143C7.1547 14.4676 7.56184 14.5012 8 14.5012C8.32012 14.5012 8.71974 14.4826 9.17578 14.4192C9.78808 14.3334 10.25 13.8023 10.25 13.1789V11.4358C9.66382 11.595 8.94698 11.7219 8.12695 11.7219C7.18321 11.7219 6.37577 11.5564 5.74805 11.3635V13.1799ZM8.02734 1.50121C5.58755 1.55386 3.62601 3.54744 3.62598 6.00023C3.62598 7.48096 4.33956 8.79388 5.44531 9.61547C5.47446 9.63713 5.501 9.6615 5.52637 9.68675C5.91652 9.85388 6.50702 10.0625 7.25 10.1623V7.96215L5.48535 6.29808C5.18336 6.01409 5.17012 5.53954 5.4541 5.23754C5.73803 4.93561 6.21464 4.9225 6.51465 5.20629L7.99902 6.60668L9.48535 5.20531C9.78636 4.92149 10.261 4.93462 10.5459 5.23656C10.8308 5.53856 10.8166 6.01214 10.5146 6.29711L8.75 7.96117V10.1887C9.57416 10.1103 10.2326 9.89276 10.667 9.71117C12.0967 8.72979 12.9342 6.95014 12.5195 5.00218C12.1614 3.32045 10.7912 1.95708 9.10742 1.60375C8.74014 1.52668 8.37827 1.49436 8.02734 1.50121Z" fill="black"/>
</svg>

<!-- This Source Code Form is subject to the terms of the Mozilla Public
   - License, v. 2.0. If a copy of the MPL was not distributed with this
   - file, You can obtain one at http://mozilla.org/MPL/2.0/. -->
<svg xmlns="http://www.w3.org/2000/svg" width="16" height="16" fill="context-fill" fill-opacity="context-fill-opacity" viewBox="0 0 16 16">
    <path fill-rule="evenodd" d="M7.997.001c.463-.009.938.033 1.418.134l.211.049c2.165.54 3.893 2.313 4.36 4.506a6.01 6.01 0 0 1-2.236 6.093v2.396a2.756 2.756 0 0 1-2.115 2.679l-.251.047A10 10 0 0 1 6.57 15.9c-1.358-.196-2.322-1.382-2.323-2.718v-2.605A5.99 5.99 0 0 1 2.126 6c0-3.27 2.617-5.93 5.871-5.999M5.748 13.18l.005.116c.052.575.483 1.04 1.032 1.118a8.5 8.5 0 0 0 2.39.005 1.254 1.254 0 0 0 1.075-1.24v-1.743a8 8 0 0 1-2.123.286 8.1 8.1 0 0 1-2.379-.358zM8.028 1.5a4.5 4.5 0 0 0-2.583 8.114q.044.033.081.072c.39.167.981.376 1.724.475v-2.2L5.485 6.298a.75.75 0 1 1 1.03-1.092l1.484 1.4 1.486-1.4a.75.75 0 1 1 1.03 1.091L8.75 7.961v2.228a6.6 6.6 0 0 0 1.917-.478c1.43-.981 2.267-2.76 1.853-4.709-.359-1.682-1.729-3.045-3.413-3.398a4.8 4.8 0 0 0-1.08-.103" clip-rule="evenodd" />
</svg>
